images/logo.svg

<?xml version="1.0" encoding="UTF-8" standalone="no"?>
<svg
  xmlns="http://www.w3.org/2000/svg"
  version="1.1"
  width="512"
  height="512"
  viewBox="0 0 512 512">
  <path
    d="m 64,0 0,512 32,0 0,-512 z m 64,0 0,512 32,0 0,-512 z m 224,0 0,192 -160,0 0,32 192,0 0,-224 z m 64,0 0,512 32,0 0,-512 z m -224,256 0,32 160,0 0,224 32,0 0,-256 z"
    style="fill:#5bacd0"/>
</svg>

<?xml version="1.0" encoding="UTF-8" standalone="no"?>
<svg
  xmlns="http://www.w3.org/2000/svg"
  version="1.1"
  width="512"
  height="512"
  viewBox="0 0 512 512">
  <path
    d="M 64 0 L 64 512 L 96 512 L 96 0 L 64 0 z M 128 0 L 128 512 L 160 512 L 160 0 L 128 0 z M 352 0 L 352 192 L 192 192 L 192 288 L 352 288 L 352 512 L 384 512 L 384 256 L 224 256 L 224 224 L 384 224 L 384 0 L 352 0 z M 416 0 L 416 512 L 448 512 L 448 0 L 416 0 z"
    style="fill:#5bacd0"/>
</svg>
